report_00007_2020-12-11T15:55:29.892Z/server-response-time/comparison/histogram/6_vs_7.svg

<svg width="640" height="500" xmlns="http://www.w3.org/2000/svg" xmlns:xlink="http://www.w3.org/1999/xlink"><path fill="#fff" d="M0 0h640v500H0z"/><defs><path id="d" stroke-width=".222" stroke="currentColor" d="M-1-1h2v2h-2z"/><path id="b" stroke-width=".222" stroke="currentColor" d="M0-1.33l-1.33 2h2.66z"/><path id="f" stroke-width=".222" stroke="currentColor" d="M0 1.33L1.265.411.782-1.067l-1.564-.009-.483 1.487z"/><use xlink:href="#b" id="c" stroke="currentColor" transform="rotate(180)"/><use xlink:href="#d" id="e" stroke="currentColor" transform="rotate(45)"/><circle id="a" stroke-width=".222" stroke="currentColor" cx="0" cy="0" r="1"/></defs><g fill="none" color="#000" stroke="currentColor"><path stroke="#000" d="M53.9 428h9m552.1 0h-9"/><text transform="translate(45.6 431.9)" stroke="none" fill="#000" font-family="Arial" font-size="12" text-anchor="end"><tspan>0</tspan></text></g><g fill="none" color="#000" stroke="currentColor"><path stroke="#000" d="M53.9 346h9m552.1 0h-9"/><text transform="translate(45.6 349.9)" stroke="none" fill="#000" font-family="Arial" font-size="12" text-anchor="end"><tspan>20</tspan></text></g><g fill="none" color="#000" stroke="currentColor"><path stroke="#000" d="M53.9 264h9m552.1 0h-9"/><text transform="translate(45.6 267.9)" stroke="none" fill="#000" font-family="Arial" font-size="12" text-anchor="end"><tspan>40</tspan></text></g><g fill="none" color="#000" stroke="currentColor"><path stroke="#000" d="M53.9 182.1h9m552.1 0h-9"/><text transform="translate(45.6 186)" stroke="none" fill="#000" font-family="Arial" font-size="12" text-anchor="end"><tspan>60</tspan></text></g><g fill="none" color="#000" stroke="currentColor"><path stroke="#000" d="M53.9 100.1h9m552.1 0h-9"/><text transform="translate(45.6 104)" stroke="none" fill="#000" font-family="Arial" font-size="12" text-anchor="end"><tspan>80</tspan></text></g><g fill="none" color="#000" stroke="currentColor"><path stroke="#000" d="M53.9 18.1h9m552.1 0h-9"/><text transform="translate(45.6 22)" stroke="none" fill="#000" font-family="Arial" font-size="12" text-anchor="end"><tspan>100</tspan></text></g><g fill="none" color="#000" stroke="currentColor"><path stroke="#000" d="M109.3 428v-9m0-400.9v9"/><text transform="translate(109.3 449.9)" stroke="none" fill="#000" font-family="Arial" font-size="12" text-anchor="middle"><tspan>1.4</tspan></text></g><g fill="none" color="#000" stroke="currentColor"><path stroke="#000" d="M192.1 428v-9m0-400.9v9"/><text transform="translate(192.1 449.9)" stroke="none" fill="#000" font-family="Arial" font-size="12" text-anchor="middle"><tspan>1.6</tspan></text></g><g fill="none" color="#000" stroke="currentColor"><path stroke="#000" d="M274.9 428v-9m0-400.9v9"/><text transform="translate(274.9 449.9)" stroke="none" fill="#000" font-family="Arial" font-size="12" text-anchor="middle"><tspan>1.8</tspan></text></g><g fill="none" color="#000" stroke="currentColor"><path stroke="#000" d="M357.6 428v-9m0-400.9v9"/><text transform="translate(357.6 449.9)" stroke="none" fill="#000" font-family="Arial" font-size="12" text-anchor="middle"><tspan>2</tspan></text></g><g fill="none" color="#000" stroke="currentColor"><path stroke="#000" d="M440.4 428v-9m0-400.9v9"/><text transform="translate(440.4 449.9)" stroke="none" fill="#000" font-family="Arial" font-size="12" text-anchor="middle"><tspan>2.2</tspan></text></g><g fill="none" color="#000" stroke="currentColor"><path stroke="#000" d="M523.1 428v-9m0-400.9v9"/><text transform="translate(523.1 449.9)" stroke="none" fill="#000" font-family="Arial" font-size="12" text-anchor="middle"><tspan>2.4</tspan></text></g><g fill="none" color="#000" stroke="currentColor"><path stroke="#000" d="M605.9 428v-9m0-400.9v9"/><text transform="translate(605.9 449.9)" stroke="none" fill="#000" font-family="Arial" font-size="12" text-anchor="middle"><tspan>2.6</tspan></text></g><path stroke="#000" d="M53.9 18.1V428H615V18.1H53.9z" fill="none" color="#000"/><text transform="translate(433.7 467.9)" stroke="none" fill="#000" font-family="Arial" font-size="12" text-anchor="end" color="#000"><tspan>pages+cached+noexternal+nofonts</tspan></text><g stroke="none" shape-rendering="geometricPrecision" fill="#9400D3" fill-opacity=".5" color="#000"><path d="M442 468.5h42.2v-9H442zM83.2 428h221.4V145.1H83.2z"/><path d="M53.9 428h29.4v-37H53.9zM304.5 428h221.4v-86.2H304.5z"/><path d="M525.8 428h89.3v-4.2h-89.3z"/></g><text transform="translate(433.7 485.9)" stroke="none" fill="#000" font-family="Arial" font-size="12" text-anchor="end" color="#000"><tspan>pages+cached+noexternal+nosvg</tspan></text><g stroke="none" shape-rendering="crispEdges" fill="#009E73" fill-opacity=".5" color="#000"><path d="M442 486.5h42.2v-9H442zM304.5 428h221.4V280.3H304.5z"/><path d="M83.2 428h221.4V177.9H83.2z"/><path d="M53.9 428h29.4v-4.2H53.9zM525.8 428h89.3v-8.3h-89.3z"/></g><g fill="none" color="#000" stroke="currentColor"><path stroke="#000" d="M53.9 18.1V428H615V18.1H53.9z"/></g></svg>

<?xml version="1.0" encoding="utf-8"  standalone="no"?>
<svg 
 width="640" height="500"
 viewBox="0 0 640 500"
 xmlns="http://www.w3.org/2000/svg"
 xmlns:xlink="http://www.w3.org/1999/xlink"
>

<title>Gnuplot</title>
<desc>Produced by GNUPLOT 5.4 patchlevel 0 </desc>

<g id="gnuplot_canvas">

<rect x="0" y="0" width="640" height="500" fill="#ffffff"/>
<defs>

	<circle id='gpDot' r='0.5' stroke-width='0.5' stroke='currentColor'/>
	<path id='gpPt0' stroke-width='0.222' stroke='currentColor' d='M-1,0 h2 M0,-1 v2'/>
	<path id='gpPt1' stroke-width='0.222' stroke='currentColor' d='M-1,-1 L1,1 M1,-1 L-1,1'/>
	<path id='gpPt2' stroke-width='0.222' stroke='currentColor' d='M-1,0 L1,0 M0,-1 L0,1 M-1,-1 L1,1 M-1,1 L1,-1'/>
	<rect id='gpPt3' stroke-width='0.222' stroke='currentColor' x='-1' y='-1' width='2' height='2'/>
	<rect id='gpPt4' stroke-width='0.222' stroke='currentColor' fill='currentColor' x='-1' y='-1' width='2' height='2'/>
	<circle id='gpPt5' stroke-width='0.222' stroke='currentColor' cx='0' cy='0' r='1'/>
	<use xlink:href='#gpPt5' id='gpPt6' fill='currentColor' stroke='none'/>
	<path id='gpPt7' stroke-width='0.222' stroke='currentColor' d='M0,-1.33 L-1.33,0.67 L1.33,0.67 z'/>
	<use xlink:href='#gpPt7' id='gpPt8' fill='currentColor' stroke='none'/>
	<use xlink:href='#gpPt7' id='gpPt9' stroke='currentColor' transform='rotate(180)'/>
	<use xlink:href='#gpPt9' id='gpPt10' fill='currentColor' stroke='none'/>
	<use xlink:href='#gpPt3' id='gpPt11' stroke='currentColor' transform='rotate(45)'/>
	<use xlink:href='#gpPt11' id='gpPt12' fill='currentColor' stroke='none'/>
	<path id='gpPt13' stroke-width='0.222' stroke='currentColor' d='M0,1.330 L1.265,0.411 L0.782,-1.067 L-0.782,-1.076 L-1.265,0.411 z'/>
	<use xlink:href='#gpPt13' id='gpPt14' fill='currentColor' stroke='none'/>
	<filter id='textbox' filterUnits='objectBoundingBox' x='0' y='0' height='1' width='1'>
	  <feFlood flood-color='#FFFFFF' flood-opacity='1' result='bgnd'/>
	  <feComposite in='SourceGraphic' in2='bgnd' operator='atop'/>
	</filter>
	<filter id='greybox' filterUnits='objectBoundingBox' x='0' y='0' height='1' width='1'>
	  <feFlood flood-color='lightgrey' flood-opacity='1' result='grey'/>
	  <feComposite in='SourceGraphic' in2='grey' operator='atop'/>
	</filter>
</defs>
<g fill="none" color="#FFFFFF" stroke="black" stroke-width="1.00" stroke-linecap="butt" stroke-linejoin="miter">
</g>
<g fill="none" color="black" stroke="currentColor" stroke-width="1.00" stroke-linecap="butt" stroke-linejoin="miter">
	<path stroke='black'  d='M53.9,428.0 L62.9,428.0 M615.0,428.0 L606.0,428.0  '/>	<g transform="translate(45.6,431.9)" stroke="none" fill="black" font-family="Arial" font-size="12.00"  text-anchor="end">
		<text><tspan font-family="Arial" > 0</tspan></text>
	</g>
</g>
<g fill="none" color="black" stroke="currentColor" stroke-width="1.00" stroke-linecap="butt" stroke-linejoin="miter">
	<path stroke='black'  d='M53.9,346.0 L62.9,346.0 M615.0,346.0 L606.0,346.0  '/>	<g transform="translate(45.6,349.9)" stroke="none" fill="black" font-family="Arial" font-size="12.00"  text-anchor="end">
		<text><tspan font-family="Arial" > 20</tspan></text>
	</g>
</g>
<g fill="none" color="black" stroke="currentColor" stroke-width="1.00" stroke-linecap="butt" stroke-linejoin="miter">
	<path stroke='black'  d='M53.9,264.0 L62.9,264.0 M615.0,264.0 L606.0,264.0  '/>	<g transform="translate(45.6,267.9)" stroke="none" fill="black" font-family="Arial" font-size="12.00"  text-anchor="end">
		<text><tspan font-family="Arial" > 40</tspan></text>
	</g>
</g>
<g fill="none" color="black" stroke="currentColor" stroke-width="1.00" stroke-linecap="butt" stroke-linejoin="miter">
	<path stroke='black'  d='M53.9,182.1 L62.9,182.1 M615.0,182.1 L606.0,182.1  '/>	<g transform="translate(45.6,186.0)" stroke="none" fill="black" font-family="Arial" font-size="12.00"  text-anchor="end">
		<text><tspan font-family="Arial" > 60</tspan></text>
	</g>
</g>
<g fill="none" color="black" stroke="currentColor" stroke-width="1.00" stroke-linecap="butt" stroke-linejoin="miter">
	<path stroke='black'  d='M53.9,100.1 L62.9,100.1 M615.0,100.1 L606.0,100.1  '/>	<g transform="translate(45.6,104.0)" stroke="none" fill="black" font-family="Arial" font-size="12.00"  text-anchor="end">
		<text><tspan font-family="Arial" > 80</tspan></text>
	</g>
</g>
<g fill="none" color="black" stroke="currentColor" stroke-width="1.00" stroke-linecap="butt" stroke-linejoin="miter">
	<path stroke='black'  d='M53.9,18.1 L62.9,18.1 M615.0,18.1 L606.0,18.1  '/>	<g transform="translate(45.6,22.0)" stroke="none" fill="black" font-family="Arial" font-size="12.00"  text-anchor="end">
		<text><tspan font-family="Arial" > 100</tspan></text>
	</g>
</g>
<g fill="none" color="black" stroke="currentColor" stroke-width="1.00" stroke-linecap="butt" stroke-linejoin="miter">
	<path stroke='black'  d='M109.3,428.0 L109.3,419.0 M109.3,18.1 L109.3,27.1  '/>	<g transform="translate(109.3,449.9)" stroke="none" fill="black" font-family="Arial" font-size="12.00"  text-anchor="middle">
		<text><tspan font-family="Arial" > 1.4</tspan></text>
	</g>
</g>
<g fill="none" color="black" stroke="currentColor" stroke-width="1.00" stroke-linecap="butt" stroke-linejoin="miter">
	<path stroke='black'  d='M192.1,428.0 L192.1,419.0 M192.1,18.1 L192.1,27.1  '/>	<g transform="translate(192.1,449.9)" stroke="none" fill="black" font-family="Arial" font-size="12.00"  text-anchor="middle">
		<text><tspan font-family="Arial" > 1.6</tspan></text>
	</g>
</g>
<g fill="none" color="black" stroke="currentColor" stroke-width="1.00" stroke-linecap="butt" stroke-linejoin="miter">
	<path stroke='black'  d='M274.9,428.0 L274.9,419.0 M274.9,18.1 L274.9,27.1  '/>	<g transform="translate(274.9,449.9)" stroke="none" fill="black" font-family="Arial" font-size="12.00"  text-anchor="middle">
		<text><tspan font-family="Arial" > 1.8</tspan></text>
	</g>
</g>
<g fill="none" color="black" stroke="currentColor" stroke-width="1.00" stroke-linecap="butt" stroke-linejoin="miter">
	<path stroke='black'  d='M357.6,428.0 L357.6,419.0 M357.6,18.1 L357.6,27.1  '/>	<g transform="translate(357.6,449.9)" stroke="none" fill="black" font-family="Arial" font-size="12.00"  text-anchor="middle">
		<text><tspan font-family="Arial" > 2</tspan></text>
	</g>
</g>
<g fill="none" color="black" stroke="currentColor" stroke-width="1.00" stroke-linecap="butt" stroke-linejoin="miter">
	<path stroke='black'  d='M440.4,428.0 L440.4,419.0 M440.4,18.1 L440.4,27.1  '/>	<g transform="translate(440.4,449.9)" stroke="none" fill="black" font-family="Arial" font-size="12.00"  text-anchor="middle">
		<text><tspan font-family="Arial" > 2.2</tspan></text>
	</g>
</g>
<g fill="none" color="black" stroke="currentColor" stroke-width="1.00" stroke-linecap="butt" stroke-linejoin="miter">
	<path stroke='black'  d='M523.1,428.0 L523.1,419.0 M523.1,18.1 L523.1,27.1  '/>	<g transform="translate(523.1,449.9)" stroke="none" fill="black" font-family="Arial" font-size="12.00"  text-anchor="middle">
		<text><tspan font-family="Arial" > 2.4</tspan></text>
	</g>
</g>
<g fill="none" color="black" stroke="currentColor" stroke-width="1.00" stroke-linecap="butt" stroke-linejoin="miter">
	<path stroke='black'  d='M605.9,428.0 L605.9,419.0 M605.9,18.1 L605.9,27.1  '/>	<g transform="translate(605.9,449.9)" stroke="none" fill="black" font-family="Arial" font-size="12.00"  text-anchor="middle">
		<text><tspan font-family="Arial" > 2.6</tspan></text>
	</g>
</g>
<g fill="none" color="black" stroke="currentColor" stroke-width="1.00" stroke-linecap="butt" stroke-linejoin="miter">
</g>
<g fill="none" color="black" stroke="currentColor" stroke-width="1.00" stroke-linecap="butt" stroke-linejoin="miter">
	<path stroke='black'  d='M53.9,18.1 L53.9,428.0 L615.0,428.0 L615.0,18.1 L53.9,18.1 Z  '/></g>
<g fill="none" color="black" stroke="currentColor" stroke-width="1.00" stroke-linecap="butt" stroke-linejoin="miter">
</g>
	<g id="gnuplot_plot_1" ><title>pages+cached+noexternal+nofonts</title>
<g fill="none" color="black" stroke="currentColor" stroke-width="1.00" stroke-linecap="butt" stroke-linejoin="miter">
	<g transform="translate(433.7,467.9)" stroke="none" fill="black" font-family="Arial" font-size="12.00"  text-anchor="end">
		<text><tspan font-family="Arial" >pages+cached+noexternal+nofonts</tspan></text>
	</g>
</g>
<g fill="none" color="black" stroke="currentColor" stroke-width="1.00" stroke-linecap="butt" stroke-linejoin="miter">
	<g stroke='none' shape-rendering='geometricPrecision'>
		<polygon fill = 'rgb(148,   0, 211)' fill-opacity = '0.500000' points = '442.0,468.5 484.2,468.5 484.2,459.5 442.0,459.5 '/>
		<polygon fill = 'rgb(148,   0, 211)' fill-opacity = '0.500000' points = '83.2,428.0 304.6,428.0 304.6,145.1 83.2,145.1 '/>
		<polygon fill = 'rgb(148,   0, 211)' fill-opacity = '0.500000' points = '53.9,428.0 83.3,428.0 83.3,391.0 53.9,391.0 '/>
		<polygon fill = 'rgb(148,   0, 211)' fill-opacity = '0.500000' points = '304.5,428.0 525.9,428.0 525.9,341.8 304.5,341.8 '/>
		<polygon fill = 'rgb(148,   0, 211)' fill-opacity = '0.500000' points = '525.8,428.0 615.1,428.0 615.1,423.8 525.8,423.8 '/>
	</g>
</g>
	</g>
	<g id="gnuplot_plot_2" ><title>pages+cached+noexternal+nosvg</title>
<g fill="none" color="black" stroke="currentColor" stroke-width="1.00" stroke-linecap="butt" stroke-linejoin="miter">
	<g transform="translate(433.7,485.9)" stroke="none" fill="black" font-family="Arial" font-size="12.00"  text-anchor="end">
		<text><tspan font-family="Arial" >pages+cached+noexternal+nosvg</tspan></text>
	</g>
</g>
<g fill="none" color="black" stroke="currentColor" stroke-width="1.00" stroke-linecap="butt" stroke-linejoin="miter">
	<g stroke='none' shape-rendering='crispEdges'>
		<polygon fill = 'rgb(  0, 158, 115)' fill-opacity = '0.500000' points = '442.0,486.5 484.2,486.5 484.2,477.5 442.0,477.5 '/>
		<polygon fill = 'rgb(  0, 158, 115)' fill-opacity = '0.500000' points = '304.5,428.0 525.9,428.0 525.9,280.3 304.5,280.3 '/>
		<polygon fill = 'rgb(  0, 158, 115)' fill-opacity = '0.500000' points = '83.2,428.0 304.6,428.0 304.6,177.9 83.2,177.9 '/>
		<polygon fill = 'rgb(  0, 158, 115)' fill-opacity = '0.500000' points = '53.9,428.0 83.3,428.0 83.3,423.8 53.9,423.8 '/>
		<polygon fill = 'rgb(  0, 158, 115)' fill-opacity = '0.500000' points = '525.8,428.0 615.1,428.0 615.1,419.7 525.8,419.7 '/>
	</g>
</g>
	</g>
<g fill="none" color="#FFFFFF" stroke="rgb(  0, 158, 115)" stroke-width="2.00" stroke-linecap="butt" stroke-linejoin="miter">
</g>
<g fill="none" color="black" stroke="currentColor" stroke-width="2.00" stroke-linecap="butt" stroke-linejoin="miter">
</g>
<g fill="none" color="black" stroke="black" stroke-width="1.00" stroke-linecap="butt" stroke-linejoin="miter">
</g>
<g fill="none" color="black" stroke="currentColor" stroke-width="1.00" stroke-linecap="butt" stroke-linejoin="miter">
	<path stroke='black'  d='M53.9,18.1 L53.9,428.0 L615.0,428.0 L615.0,18.1 L53.9,18.1 Z  '/></g>
<g fill="none" color="black" stroke="currentColor" stroke-width="1.00" stroke-linecap="butt" stroke-linejoin="miter">
</g>
</g>
</svg>
